boxicons/svg/regular/bx-text.svg

<svg xmlns="http://www.w3.org/2000/svg" width="24" height="24" viewBox="0 0 24 24"><path d="M5 8h2V6h3.252L7.68 18H5v2h8v-2h-2.252L13.32 6H17v2h2V4H5z"/></svg>

<svg xmlns="http://www.w3.org/2000/svg" width="24" height="24" viewBox="0 0 24 24"><path d="M5 8L7 8 7 6 10.252 6 7.68 18 5 18 5 20 13 20 13 18 10.748 18 13.32 6 17 6 17 8 19 8 19 4 5 4z"/></svg>
